html/dist/img/svg/facebook_white.svg

<svg width="39" height="74" viewBox="0 0 39 74" fill="none" xmlns="http://www.w3.org/2000/svg">
<path d="M36.4446 41.3107L38.4657 28.0194H25.8219V19.3981C25.8219 15.761 27.5849 12.2136 33.248 12.2136H39V0.898058C39 0.898058 33.7822 0 28.7959 0C18.3782 0 11.5754 6.36716 11.5754 17.8893V28.0194H0V41.3107H11.5754V73.4433C13.8993 73.8115 16.2768 74 18.6987 74C21.1206 74 23.4981 73.8115 25.8219 73.4433V41.3107H36.4446Z" fill="white"/>
</svg>

<svg width="39" height="74" viewBox="0 0 39 74" fill="none" xmlns="http://www.w3.org/2000/svg"><path d="M36.445 41.31l2.02-13.29H25.823v-8.622c0-3.637 1.763-7.184 7.426-7.184H39V.898S33.782 0 28.796 0c-10.418 0-17.22 6.367-17.22 17.89v10.13H0v13.29h11.575v32.133c2.324.368 4.702.557 7.124.557 2.422 0 4.8-.189 7.123-.557V41.311h10.623z" fill="#fff"/></svg>
